src/img/play_r.svg

<svg width="26" height="51" viewBox="0 0 26 51" fill="none" xmlns="http://www.w3.org/2000/svg">
<path d="M6.4209 50.823H0.170898V0.822998H6.4209V7.073H12.6709V16.448H18.9209V22.698H25.1709V28.948H18.9209V35.198H12.6709V44.573H6.4209V50.823Z" fill="#3B2027"/>
</svg>

<svg width="26" height="51" fill="none" xmlns="http://www.w3.org/2000/svg"><path d="M6.42 50.823H.17v-50h6.25v6.25h6.25v9.375h6.25v6.25h6.25v6.25h-6.25v6.25h-6.25v9.375H6.42v6.25z" fill="#3B2027"/></svg>
